X: 1329
T: the Miltown Maid   #2
R: reel
O: McFadden
B: O'Neill's 1850 #1329
Z: Trish O'Neil
Z: Compacted via repeats and multiple endings [JC]
M: C|
L: 1/8
K: D	% and/or Em
(dc) !segno!|:\
BE-~E2 Bdcd | (3(BAF) (DF) dAFA |\
[1 BE-~E2Bcde | (3(fed) (3(edc) dAFA :|\
[2 BABc dcde | (3(fed) ec dAFA |]| Beec d2(dc) |
| Beed (~dA)FA | Beec dfag | fedc (~dA)FA ||\
Beec d2(dc) | Beec defg | afba gfeg | (3(fga) (ef) dfe!segno!c |]
